X: 8
T: Greig's Pipes
R: reel
M: 4/4
L: 1/8
K: Gmaj
G2 BG AGBA|G2 BG AGED|G2 BG AAAB|dedc BAGF|
G2 BG AGBA|G2 BG AGED|c2 BG A2 GE|DEGB A2 Gd:|]
edgd edgd|edgd cBAG|edgd edgd|dedc BGGd|
edgd edgd|edgd cBAG|GB (3def gage|dedc Bd g2:|]
d2 de d3 e|d2 BG AGED|d3 e d2 BG|(3ABc BG AB (3def|
gfeg fedf|edce dBGB|c2 ec B2 dB|(3ABc BG AGED:|]


Tune 605	Setting 28229

